X:1
T:Dal molle seno
T:Dal molle seno
T:Gio.Girolamo kapsperger
C:Gio.Girolamo kapsperger
%%score [ 1 2 ] { ( 3 5 ) | 4 }
L:1/8
Q:1/4=120
M:4/4
K:F
V:1 treble nm="Soprano" snm="S"
V:2 bass nm="Bass" snm="B"
V:3 treble nm="BC" snm="BC"
V:5 treble 
V:4 bass 
V:1
 z ddd d2 d2 | _e>e ed d2 c2 | B2 BA A2 A2 | ABcd G2 G2 | c2 cB A2 A2 | AABc d2 c2 | B2 cB A4 | %7
w: Dal mol- le se- no|del- la pu- ra fon- te,|che sor- ge'al' au- ra|del se- ren gia- con- da,|fi- glia ca- no- ra,|del su- per- bo mon- te,|mor- mo- rar l'on-|
w: Ai va- gi'ac- cen- ti|del a- mi- co ven- to,|che dol- ce mo- ve|su- sur- ren- do l'on- de,|del sem- pre a- go|fug- gi- ti- vo'ar- gen- to|e- cho ri- spon-|
w: Su' le fio- ri- te|ci- me d'ar- bus- cel- li,|for- man dal se- no|g'lau- gel- let- ti fuo- re,|tra lor mo- ven- do|mu- si- ci du- el- li|ca- re d'A- mo-|
w: Lie- t'in- ci- na- te|su l'her- bo- sa spon- da,|cin- ti le tem- pie|d'o- do- ra- ti fio- ri,|l'al- ba che pian- ti|sol di per- le'in- on- da-|va- ghi pa- sto-|
w: L'ac- qua che'l fon- te|cri- stal- li- no'ac- co- glie,|e'l pra- to'a- dor- no|di bei fior co- lo- ra,|e del gran pian- to,|che l'Au- ro- ra scio- glie|on- da ca- no-|
w: |||||* * * * * da|va- ghi pa- sto-|
 G8 |] %8
w: da.|
w: de.|
w: re.|
w: ri|
w: ra.|
w: ri|
V:2
 B,2 A,A, G,2 F,2 | _E,>E, G,A, B,2 F,2 | D,2 E,E, F,2 F,,2 | A,,A,,B,,B,, C,2 B,,2 | %4
w: Dal mol- le se- no|del- la pu- ra fon- te,|che sor- ge'al' au- ra|del se- ren gia- con- da,|
w: Ai va- gi'ac- cen- ti|del a- mi- co ven- to,|che dol- ce mo- ve|su- sur- ren- do l'on- de,|
w: Su' le fio- ri- te|ci- me d'a- bus- cel- li,|for- man dal se- no|gl'au- gel- let- ti fuo- re,|
w: Lie- t'in- ci- na- te|su l'her- bo- sa spon- da,|cin- ti le tem- pie,|d'o- do- ra- ti fio- ri,|
w: L'ac- qua ch'el fon- te|cri- stal- li- no'ac- co- glie|e'l pra- to'a- dor- no|di bei fior co- lo- ra,|
 A,,2 G,,G, F,2 D,2 | F,F,_E,E, B,,2 A,,2 | G,,2 C,C, D,4 | G,,8 |] %8
w: fi- glia ca- no- ra,|del su- per- bo mon- te,|mor- mo- rar l'on-|da.|
w: del sem- pre a- go|fug- gi- ti- vo'ar- gen- to,|e- cho ri- spon-|de.|
w: tra lor mo- ven- do|mu- si- ci du- el- li|ca- re d'A- mo-|re.|
w: l'al- ba che pian- ti|sol di per- l'in- non- da,|va- ghi pa- sto-|ri.-|
w: e del gran pian- to,|che l'Au- ro- ra scio- glie|on- da ca- no-|ri.|
V:3
 [FBd]2 [Fd]2 [GBd]2 [Ad]2 | [GB]4 [Fd]2 [Ac]2 | B4 [Ac]4 | [Ec]2 [DFB]2 [EG]2 [DGB]2 | %4
 [Ec]2 [DGB]2 [Ac]2 [FA]2 | [FAc]2 [GB]2 [DFB]2 [EAc]2 | [GB]2 G2 d4 | [DG=B]8 |] %8
V:4
 B,2 A,2 G,2 F,2 | _E,2 G,A, B,2 F,2 | D,2 E,2 F,2 F,,2 | A,,2 B,,2 C,2 B,,2 | A,,2 G,,2 F,2 D,2 | %5
 F,2 _E,2 B,,2 A,,2 | G,,2 C,2 [D,A,]4 | [G,,G,]8 |] %8
V:5
 x8 | x8 | F2 G2 F4 | x8 | x8 | x8 | D2 E2 G2 ^F2 | x8 |] %8

